X:199
T:Idle Road, The
R:jig
Z:id:hn-jig-199
M:6/8
K:G
DBB Dcc|DBB cde|dBG FGA|BGB AFD|DBB Dcc|DBB cde|dBG FGA|1 BGF G2E:|2 BGF GBd||
|:gfg efg|fed cAF|GBd ~g3|afd cAF|DBB Dcc|DBB cde|dBG FGA|1 BGF GBd:|2 BGF G2E||

